X:1
T:Win the World for Christ
T:Alfred Judson
T:Win the World for Christ
T:Public Domain
T:Public Domain
T:Public Domain
T:Public Domain
C:Alfred Judson
Z:Public Domain
%%score ( 1 2 ) ( 3 4 )
L:1/8
M:4/4
K:C
V:1 treble 
V:2 treble 
V:3 bass 
V:4 bass 
V:1
 [CE]>[DF] | [EG]2 [EG]2 [EG]2 [Ec]2 | [Ge]2 [Ec]4 c>B | (z2 F>F F2) c2 | z2 E2 E2 [CE]>[DF] | %5
w: 1.~Hear our|watch- word loud- ly|ring- ing, Win the|* * * world|* * Christ; Pre-|
w: 2.~Send the|word to ev- ’ry|na- tion, Win the|* * * world|* * Christ; Spread|
w: 3.~Tell the|bless- èd Gos- pel|sto- ry, Win the|* * * world|* * Christ; Till|
w: ~ ~|~ ~ ~ ~|~ ~ ~ ~|* * * ~|* * ~ ~|
 [EG]2 [EG]2 [EG]2 [Ec]2 | [Ee]2 [Ec]4 B>A | (z2 G>G ^F2) [DF]2 | [DG]6 [FG]>[FA] | %9
w: * souls to Je-|sus bring- ing, Win|* * * the|* for Christ;|
w: * know- ledge of|sal- va- tion, Win|* * * the|* for Christ;|
w: * comes a- gain|in glo- ry, Win|* * * the|* for Christ;|
w: * ~ ~ ~|~ ~ ~ ~|* * * ~|* ~ ~|
 [FB]2 [FB]2 [FB]2 [FG]2 | [EA]2 [EG]4 [FG]>[FA] | [FB]2 [FB]2 [FB]2 [FG]2 | [Ec]6 G>G | %13
w: We must all take|hold to- ge- ther;|Ev- ’ry one must|do his share;|
w: But we’ll not for-|get our neigh- bors,|Those who live be-|side our door,|
w: Toil- ing on with|faith and cour- age,|Till the sheaves are|ga- thered in;|
w: ~ ~ ~ ~|~ ~ ~ ~|~ ~ ~ ~|~ ~ ~|
 [Ge]2 [Ge]2 [^Gd]2 [Gd]>[Gd] | [Ac]2 [Ac]2 [Ac]2 B>A | z2 E>E F2 [Fd]2 | [Ec]6 ||"^Refrain" E>F | %18
w: one by one, till the|work is done; La- bor|on (la- bor on)||prayer. *|
w: word of cheer to a|bro- ther near, Serv- ing|more (serv- ing more)||more. Win|
w: spe- cial place show- ing|forth His grace, Till the|world (till the world)||win. *|
w: work will grow, reach- ing|all be- low, Win the|world (win the world)||Christ. *|
 (z2 E>E E2) c2 | z2 F2 F2 G2 | z2 G2 G2 G2 | (z2 G2 G2) [Ec]>[GB] | [GB]2 [FA]2 [FA]2 [Ac]>[FA] | %23
w: |||||
w: * * * the|* * for|* * Win|* * win one!|the work will grow, reach-|
w: |||||
w: |||||
 [FA]2 [EG]2 [EG]2 [Ec]>[Ec] | [^FA]2 [FA]2 [FB]2 [Fc]2 | [Fd]6 E>F | (z2 E>E E2) c2 | %27
w: ||||
w: ing all be- low, Till|the world is won|for Christ. Win|* * * the|
w: ||||
w: ||||
 z2 F2 F2 G2 | z2 G2 G2 G2 | z2 G2 G2 |] %30
w: |||
w: * * for|* * Win||
w: |||
w: |||
V:2
 x2 | x8 | x8 | A4 x4 | G6 x2 | x8 | x8 | d6 x2 | x8 | x8 | x8 | x8 | x6 G>G | x8 | x8 | B6 x2 | %16
w: |||for|cious|||world|||||Seek them|||with|
w: |||for|the|||world|||||Speak a|||and|
w: |||for|He|||world|||||In our|||we|
w: |||~|~|||~|||||D.S.~And the|||for|
 x6 || x2 | G6 x2 | B6 x2 | d6 x2 | e6 x2 | x8 | x8 | x8 | x8 | G6 x2 | B6 x2 | d6 x2 | e6 |] %30
w: ||||||||||||||
w: ||world|Christ;|one,|And|||||world|Christ;|one,|win|
w: ||||||||||||||
w: ||||||||||||||
V:3
 [C,G,]>[C,G,] | [C,C]2 [C,C]2 [C,C]2 [C,G,]2 | [C,C]2 [C,C]4 z2 | z2 [F,C]>[F,C] [F,C]2 z2 | %4
w: ~ ~|~ ~ ~ ~|~ ~|Win the world|
 z2 [C,C]2 [C,C]2 [C,G,]>[C,G,] | [C,C]2 [C,C]2 [C,C]2 [C,G,]2 | [A,C]2 [A,C]4 z2 | %7
w: for Christ ~ ~|~ ~ ~ ~|~ ~|
 z2 [D,B,]>[D,B,] [D,A,]2 [D,C]2 | [G,B,]2 .[G,B,]2 .[G,B,]2 [G,B,]>[G,C] | %9
w: Win the world ~|~ for Christ ~ ~|
 [G,D]2 [G,D]2 [G,D]2 [G,B,]2 | [C,C]2 [C,C]4 [G,B,]>[G,C] | [G,D]2 [G,D]2 [G,D]2 [G,B,]2 | %12
w: ~ ~ ~ ~|~ ~ ~ ~|~ ~ ~ ~|
 [C,C]6 G,>G, | [C,C]2 [C,C]2 [E,B,]2 [E,E]>[E,E] | [A,E]2 [A,E]2 [F,F]2 z2 | %15
w: ~ ~ ~|~ ~ ~ ~ ~|~ ~ ~|
 z2 [G,C]>[G,C] [G,B,]2 [G,B,]2 | [C,C]6 || z2 | z2 [C,C]>[C,C] [C,C]2 z2 | z2 [G,D]2 [G,D]2 z2 | %20
w: ~ ~ ~ Win|the||world for Christ;|Win one,|
 z2 [G,B,]2 [G,B,]2 z2 | z2 [C,C]2 [C,C]2 [C,C]>[C,C] | [F,C]2 [F,C]2 [F,C]2 [F,C]>[F,C] | %23
w: win one!|~ ~ ~ ~|~ ~ ~ ~ ~|
 [C,C]2 [C,C]2 [C,C]2 [C,C]>[C,C] | [D,C]2 [D,C]2 [D,B,]2 [D,A,]2 | [G,B,]6 z2 | %26
w: ~ ~ ~ ~ ~|~ ~ ~ Win|the|
 z2 [C,C]>[C,C] [C,C]2 z2 | z2 [G,D]2 [G,D]2 z2 | z2 [G,B,]2 [G,B,]2 z2 | z2 [C,C]2 [C,C]2 |] %30
w: world for Christ;|Win one,|win one!||
V:4
 x2 | x8 | x8 | x8 | x8 | x8 | x8 | x8 | x8 | x8 | x8 | x8 | x6 G,>G, | x8 | x8 | x8 | x6 || x2 | %18
w: ||||||||||||~ ~||||||
 x8 | x8 | x8 | x8 | x8 | x8 | x8 | x8 | x8 | x8 | x8 | x6 |] %30
w: ||||||||||||

